X:1
T:The Light upon the Way
T:The Light upon the Way
T:Edmund Simon Lorenz
T:Lura Case Warner Callin, 1908
T:Public Domain Courtesy of the Cyber Hymnal™
T:Public Domain Courtesy of the Cyber Hymnal™
C:Edmund Simon Lorenz
Z:Public Domain
Z:Courtesy of the Cyber Hymnal™
%%score ( 1 2 ) ( 3 4 )
L:1/8
Q:1/4=105
M:4/4
K:D
V:1 treble 
V:2 treble 
V:3 bass 
V:4 bass 
V:1
 ([DF][EG]) | [FA]2 [FA]2 [^E^G]2 [EB]2 | [FA]2 [FA]2 [^E^G]2 [EB]2 | %3
w: 1.~When *|days are dark and|cares op- press, When|
w: 2.~I *|find with- in its|prom- ise sweet Strength|
w: 3.~O *|bless- èd Book! how|cheer- ing are The|
w: 4.~O *|bless- èd Book, my|hope, my stay, To|
 [FA][GB][Gc][Fd] [Ge]2 [Fd]2 | [Gc]6 ([CE][DF]) | [EG]2 [EG]2 [^DF]2 [FA]2 | %6
w: tri- als sore my soul dis-|tress, I *|have a com- fort,|
w: for my heart, light to my|feet; My *|help and com- fort,|
w: glimps- es of the land a-|far, Where *|saints, e- ter- nal|
w: that fair land point out the|way; Where *|I, blood- washed and|
 [EG]2 [EG]2 [^DF]2 [FA]2 | [EG][FA][Ac][GB] [FA]2 [EG]2 | [DF]6 ||"^Refrain" [DF][EG] | %10
w: full and sure, God’s|bless- èd Word, whose truths en-|dure.||
w: day by day, I|find with- in the Book al-|way.|’Tis a|
w: glo- ry won, Claim|Heav- en’s crown when earth is|done.||
w: saved by grace, Be-|yond the Book be- hold His|face.||
 [FA]4- [FA][FB][Fc][Fd] | [Gd]2 [Gc]4 [CE][DF] | [EG]4- [EG][FA][Ac][GB] | [FB]2 [FA]4 [DF][EG] | %14
w: ||||
w: light * for- ev- er|guid- ing Those who|walk * in it con-|fid- ing, In its|
w: ||||
w: ||||
 [FA]4- [FA][FB][Fc][Fd] | [Ge]2 [Gd]4 [Ac][GB] | %16
w: ||
w: prom- * is- es a-|bid- ing, And ’tis|
w: ||
w: ||
 [FA]!fermata![Fd][DF]!fermata![FA] [CG][CG][CE][CE] | D6 |] %18
w: ||
w: shin- ing, shin- ing, shin- ing all the|way!|
w: ||
w: ||
V:2
 x2 | x8 | x8 | x8 | x8 | x8 | x8 | x8 | x6 || x2 | x8 | x8 | x8 | x8 | x8 | x8 | x8 | D6 |] %18
V:3
 z2 | D,,2 D,2 D,,2 D,2 | D,,2 D,2 D,,2 D,2 | D,,2 D,2 [C,A,]2 [D,A,]2 | ([E,A,]2 A,^G,) A,2 z2 | %5
w: |~ ~ ~ ~|~ ~ ~ ~|~ ~ ~ ~|~ * * ~|
 A,,2 A,2 A,,2 A,2 | A,,2 A,2 A,,2 A,2 | A,,2 A,2 [C,A,]2 [A,,A,]2 | ([D,A,]2 A,^G, [D,A,]2) || %9
w: ~ ~ ~ ~|~ ~ ~ ~|~ ~ ~ ~|~ * * *|
 [D,A,][D,A,] | [D,D][D,D][D,D][D,D] [D,A,]2 [D,A,][D,A,] | %11
w: ’Tis a|light up- on their way, Lest the|
 [E,A,][E,A,] [E,A,][E,A,] [E,A,]2 [A,,A,][A,,A,] | %12
w: child- ren err- ing stray; Those who|
 [A,,A,][A,,A,][A,,A,][A,,A,] [A,,A,]2 [A,,E][A,,C] | %13
w: walk with- in its glow, Will life’s|
 [D,D][A,,A,][A,,A,][A,,A,] [A,,A,]2 [D,A,][D,A,] | [D,D][D,D][D,D][D,D] [D,A,]2 [D,A,][D,A,] | %15
w: deep- er mean- ing know, In its|prom- is- es they rest, And are|
 [G,B,][G,B,][G,B,][G,B,] [G,B,]2 [G,C][G,D] | %16
w: ever safe and blest; * * *|
 [A,D]!fermata!A,[A,,A,]!fermata![A,,A,] [A,,E,][A,,E,][A,,G,][A,,G,] | [D,F,]3 x3 |] %18
w: ||
V:4
 x2 | x8 | x8 | x8 | x8 | x8 | x8 | x8 | x6 || x2 | x8 | x8 | x8 | x8 | x8 | x8 | x A, x6 | x6 |] %18

